X: 3
T: Chief O'Neill's Favourite
R: hornpipe
M: 4/4
L: 1/8
K: Dmaj
|:de|(3fef fg afge|fd^dd dcAG|FD D2 FGAB|=c2 B=c A2 de|
|(3fef fg afge|fd^dd dcAG|EFFD (3FGB AG|(3FGA EA D2|
|:de|(3fef fg afge|fd^dd dcAG|F3 D FGAB|=cAd^c A2 de|
|(3fef fg afge|fd^dd dcAG|EFFD (3FGB AG|(3FGA EA D2||
|:DE|=F3E =FGAB|=c2 dB =cAGB|Ad d2 fded|(3A^cA d^c A2de|
|(3fef fg afge|fd^dd dcAG|EFFD (3FGB AG|(3FGA EA D2|
|E|=F3E =FGAB|=cAdB =cAGB|Ad d2 fded|=cAd^c A2de|
|(3fef fg afge|fd^dd dcAG|EFFD (3FGB AG|(3FGA EA D2||


Tune 13	Setting 24363

